X:1
T:Title
%%score { ( 1 3 ) | ( 2 4 ) }
L:1/8
M:4/4
K:A
V:1 treble nm="Grand Piano"
V:3 treble 
V:2 bass 
V:4 bass 
V:1
 z4 z2[Q:1/4=88] [CE][CA] | [Ec][Ec][DB][CA] [Ec]<[Ec] [DG][EA] |[M:3/4] BA FA E2 |[M:1/4] C[B,D] | %4
[M:4/4] [CE][CE]FG AAGA |[M:3/4] z2 z2 B2[K:bass] |[M:1/4] E[K:treble]E | %7
[M:4/4] [Ec][Ec][DB][CA] [Ec]<[Ec] [DG][EA] | BBFF .[DFB]2 [A,EG]F | E<A AB c<c B>B | %10
[M:3/4] [CEA]6 |[M:1/4] [CA][CF] |[M:4/4] [DG]<[Fd] [Fd]F G<d cB | [CA]>[DG] [EA]B c2 cc | %14
 eecc e<e GG |[M:3/4] [B,^DB][CDA] [B,DG][A,DF] [G,E]2 |[M:1/4] [A,E][G,E] | %17
[M:4/4] [Ec][Ec][DB][CA] [Ec]<[Ec] [DG][EA] | BBFF .[DFB]2 [A,EG]F | E<A AB c<c B>B | %20
[M:7/4] [CEA]6 z2 z2 z4 |] %21
V:2
 z4 z2 [A,,A,][A,,A,] | [A,,A,][A,,A,][A,,E,][A,,E,] [A,,A,]<[A,,A,] [B,,E,][C,A,] | %2
[M:3/4] [D,F,D][D,F,D] [D,A,D][F,A,D] [A,C]2 |[M:1/4] [A,,E,A,][A,,E,] | %4
[M:4/4] [A,,A,][A,,A,][A,C][G,B,C] [F,A,C][F,A,C][F,B,C][F,A,C] | %5
[M:3/4] [B,,A,][B,,A,] [B,,A,][B,,A,] .[E,G,E]2 |[M:1/4] [C,A,][B,,G,] | %7
[M:4/4] [A,,A,][A,,A,][A,,E,][A,,E,] [A,,A,]<[A,,A,] [B,,E,][C,A,] | %8
 [D,F,D][D,F,D][D,A,D][D,A,D] z AD,[D,A,D] | %9
 [E,A,C]<[E,CE] [F,B,^D][F,A,D] [E,A,E]<[E,A,E] [E,G,=D]>[E,G,D] |[M:3/4] [A,,A,]6 | %11
[M:1/4] [A,,A,][A,,A,] |[M:4/4] [E,B,]<[E,G,] [E,G,][E,B,D] [B,D]<[E,G,F] [E,G,E][E,G,D] | %13
 [A,,A,]>[B,,E,] [C,A,][E,G,E] [A,E]2 [A,E][A,E] | %14
 [G,B,E][G,B,E][A,E][A,E] [G,B,E]<[G,B,E] [E,B,E][E,B,E] |[M:3/4] B,,B,, B,,B,, E,D, | %16
[M:1/4] C,B,, |[M:4/4] [A,,A,][A,,A,][A,,E,][A,,E,] [A,,A,]<[A,,A,] [B,,E,][C,A,] | %18
 [D,F,D][D,F,D][D,A,D][D,A,D] z AD,[D,A,D] | %19
 [E,A,C]<[E,CE] [F,B,^D][F,A,D] [E,A,E]<[E,A,E] [E,G,=D]>[E,G,D] |[M:7/4] [A,,A,]6 z2 z2 z4 |] %21
V:3
 x8 | x8 |[M:3/4] x6 |[M:1/4] x2 |[M:4/4] x8 |[M:3/4] [^DB][Dc] [DB][Dc] z[K:bass] D, | %6
[M:1/4] x[K:treble] x |[M:4/4] x8 | x8 | x8 |[M:3/4] x6 |[M:1/4] x2 |[M:4/4] x8 | x8 | x8 | %15
[M:3/4] x6 |[M:1/4] x2 |[M:4/4] x8 | x8 | x8 |[M:7/4] x14 |] %21
V:4
 x8 | x8 |[M:3/4] x6 |[M:1/4] x2 |[M:4/4] x8 |[M:3/4] x6 |[M:1/4] x2 |[M:4/4] x8 | z4 D,2 z2 | x8 | %10
[M:3/4] x6 |[M:1/4] x2 |[M:4/4] x8 | x8 | x8 |[M:3/4] x6 |[M:1/4] x2 |[M:4/4] x8 | z4 D,2 z2 | x8 | %20
[M:7/4] x14 |] %21

